X: 2
P: Polska av S\"abb Jon i D moll
O: efter P\aahl Olle
R: polska
Z: 1998 by John Chambers <jc@trillian.mit.edu>
M: 3/4
L: 1/8
K: Dm
|: "Dm"{A,}D2 (D>E) F>G \
| {G}A2 (A/B/)A/F/ D>E \
| F2 FE/F/ "Gm"GF/G/ \
| "A"{G}A2 A2- A>=B \
| "F"c2 (c>=B) "G"G>B \
| "Dm"{G}A2 (A/B/)A/F/ D>E |
| "Dm"F2 (F/E/)F/G/ "A7"A>F \
| ED/^C/ "Dm"D4 \
:: "Dm"{A}f2 f2- f>a \
| "A"e2 e2- e>^c \
| "Gm"d2 d^c/d/ "C"f>e \
| "F"d2 (c/d/)c/A/ F>A |
| "Gm"{A}B2 (B/A/)B/c/ d>B \
| "Dm"A2 (A/B/)A/F/ D>E \
|1,3 "Dm"F2 FE/F/ "C"GF/G/ \
| "F"A2 A4 \
:|2,4 "Dm"F2 FE/F/ "A7"A>F \
| E<^C "Dm"D4 |]
